X:2
T: Körtéfa
O: Ghymes (Nyitra), 1906
Q:"Poco rubato" 1/4=69
M:4/4
L:1/4
K:C
GA(Bc) | d2 c A | 
GA(Bc) | d2 c A | 
BA^G^F | D2 A2 | 
cBA2 | E2 EE | 

